production/public/images/logo_symbol_white.svg

<svg width="490" height="550" xmlns="http://www.w3.org/2000/svg" fill-rule="evenodd" clip-rule="evenodd" stroke-linejoin="round" stroke-miterlimit="1.414"><path d="M471.628 401.917c0 1.605-.563 3.14-1.546 4.354-.065-.398-.15-.79-.24-1.18l-.047-.22c-.05-.233-.1-.465-.17-.718-.02-.082-.04-.163-.064-.25-.06-.21-.14-.41-.218-.612l-.164-.446c-.097-.277-.194-.554-.308-.818-.128-.3-.276-.59-.425-.88l-.206-.4c-.117-.237-.237-.473-.368-.697-.22-.377-.472-.734-.723-1.09l-.19-.275c-.103-.156-.208-.31-.317-.452-.396-.514-.847-1.03-1.358-1.55l-.092-.1c-1.12-1.122-2.364-2.082-3.702-2.854l-71.97-41.568v-154.56l71.826-41.48c.417-.24.887-.432 1.48-.61l.102-.032c.07-.022.14-.044.222-.064.452-.112.928-.175 1.41-.187.078-.002.157-.008.272-.018.265.005.57.048.842.087l.115.016c.108.015.216.03.313.05.277.06.57.144.893.26.138.05.274.103.406.16.295.126.637.28 1.005.504.262.164.534.386.757.57.067.06.135.115.202.17.05.04.102.08.182.16.29.277.53.54.737.812.058.076.106.17.16.26.057.096.114.193.167.276l.115.183c.088.137.178.272.252.426.053.115.09.246.134.376l.19.54c.05.138.106.275.14.423.125.54.184 1.055.184 1.575v239.857zm-12.134 7.556l-.062.55c-.018.19-.032.38-.07.548-.078.33-.21.67-.387 1.085l-.103.26c-.028.074-.055.15-.08.203-.124.235-.317.495-.52.77l-.064.086c-.066.09-.127.182-.185.275l-.058.087c-.04.05-.08.1-.09.124-.38.426-.79.792-1.224 1.087l-.487.336-124.97 72.196c-.092-.706-.23-1.403-.407-2.09-1.18-4.552-4.097-8.384-8.223-10.793l-66.692-38.51 128.34-74.118 71.802 41.41.154.096c.485.284.923.61 1.33 1l.1.1c.392.393.73.826 1.01 1.296l.1.204c.26.475.463.963.595 1.435.023.08.028.166.038.25.017.128.034.256.067.445.07.38.136.737.142 1.046.004.174-.023.382-.053.623M319.682 492.71c-.354.548-.675 1.005-1.133 1.5-.08.09-.17.17-.268.254l-69.72 40.257c-.667.365-1.222.592-1.84.746-1.16.322-2.225.326-3.546-.038-.118-.03-.233-.075-.35-.117l-.214-.074c-.107-.04-.207-.085-.248-.1-.285-.14-.574-.29-.77-.397l-207.97-120.1c-.312-.212-.556-.4-.814-.63-.118-.1-.236-.198-.296-.253-1.235-1.276-1.917-2.964-1.918-4.75 0-2.487 1.284-4.715 3.436-5.96l71.87-41.558 211.09 121.96c3.92 2.29 4.054 6.89 2.69 9.26m-299.82-86.516c-.948-1.204-1.49-2.707-1.49-4.277V162.06c0-1.93.726-3.594 2.192-4.98.358-.36.813-.685 1.416-1.016.117-.063.236-.12.38-.188.272-.132.587-.252.962-.365l.197-.06c.108-.034.215-.07.316-.093.4-.087.813-.138 1.228-.15.08-.003.16-.01.247-.02.482.005.984.076 1.53.213.043.01.085.027.13.043l.22.072c.597.186 1.035.365 1.41.58l71.88 41.507V352.16l-72.69 41.906c-4.31 2.746-7.163 7.166-7.93 12.128m1.858-264.24l84.128-48.547 128.386 74.133-.034.02 82.798 47.81c1.934 1.128 3.177 3.047 3.41 5.262.008.064.017.126.03.2.03.375.014.797-.044 1.314l-.014.126c-.012.104-.022.207-.043.32-.063.36-.164.73-.3 1.112-.066.174-.137.345-.216.515-.158.344-.323.644-.493.902-.127.19-.276.364-.424.544-.217.262-.427.513-.653.715-.365.332-.763.672-1.192.92l-68.612 39.393c-2.042 1.17-4.836 1.17-6.87-.008l-135.443-78.213-71.897-41.532c-.62-.392-1.237-.69-2.256-1.143-.136-.06-.278-.1-.444-.14-.852-.33-1.76-.594-2.783-.807l-.195-.04c-.195-.044-.39-.085-.582-.115-1.22-.195-2.224-.317-3.194-.213l-.1.01c-.14.003-.274.015-.41.027l-.154.01c-1.127.073-2.218.243-3.267.51-.072.015-.144.03-.23.053-.675.184-1.348.414-2.002.68.52-1.586 1.613-2.962 3.1-3.82m219.8-126.837c2.09-1.205 4.79-1.204 6.876-.002l125.022 72.09-128.42 74.158-128.415-74.15 124.937-72.096zm14.233 259.758l66.653-38.267c.74-.426 1.466-.928 2.27-1.573l54.113-31.245v142.174l-123.035-71.09zm-144.537 71.148V203.8l123.062 71.062-123.062 71.16zm130.342-62.975c2.093-1.21 4.797-1.21 6.888 0L373.55 355.33l-128.454 74.187-128.472-74.228 124.93-72.243zM468.26 141.935c1.513.878 2.62 2.282 3.135 3.892-.238-.094-.482-.184-.733-.27-3.182-1.187-6.558-1.372-9.803-.588-.96.208-1.893.495-2.73.832-.147.037-.292.08-.474.158-.62.278-1.264.58-1.706.87l-50.796 29.344-74.067 42.764c-.715-5.384-3.833-10.08-8.647-12.858l-66.713-38.52 128.39-74.142 84.143 48.517zm5.467-9.277L253.754 5.818c-2.63-1.515-5.67-2.316-8.8-2.316-3.13 0-6.174.8-8.8 2.32L16.326 132.636c-5.435 3.147-8.81 9.007-8.81 15.303l.026 4.248-.083 249.675c-.003 6.276 3.372 12.123 8.808 15.26L236.255 544.14c2.674 1.542 5.72 2.358 8.806 2.358 3.087 0 6.132-.816 8.807-2.36l219.867-126.943c5.432-3.137 8.807-8.982 8.807-15.254V147.915c0-6.277-3.377-12.125-8.813-15.256" fill="#fff"/></svg>

<?xml version="1.0" standalone="no"?>
<!DOCTYPE svg PUBLIC "-//W3C//DTD SVG 1.1//EN" "http://www.w3.org/Graphics/SVG/1.1/DTD/svg11.dtd">
<svg width="490px" height="550px" version="1.1" xmlns="http://www.w3.org/2000/svg" xmlns:xlink="http://www.w3.org/1999/xlink" xml:space="preserve" style="fill-rule:evenodd;clip-rule:evenodd;stroke-linejoin:round;stroke-miterlimit:1.41421;">
    <g>
        <g id="Layer 1">
            <g>
                <path d="M471.628,401.917C471.628,403.522 471.065,405.057 470.082,406.271C470.017,405.872 469.931,405.481 469.842,405.089L469.795,404.87C469.745,404.637 469.694,404.405 469.624,404.152C469.606,404.07 469.586,403.989 469.561,403.901C469.499,403.693 469.421,403.492 469.342,403.29L469.178,402.844C469.081,402.567 468.984,402.29 468.87,402.026C468.742,401.725 468.594,401.436 468.445,401.147L468.239,400.745C468.123,400.509 468.003,400.273 467.872,400.049C467.651,399.673 467.4,399.316 467.149,398.959L466.961,398.685C466.857,398.529 466.752,398.374 466.643,398.233C466.247,397.719 465.796,397.204 465.285,396.683L465.193,396.583C464.074,395.461 462.829,394.501 461.491,393.729L389.519,352.162L389.519,197.601L461.346,156.122C461.763,155.883 462.233,155.69 462.826,155.511L462.928,155.48C462.999,155.458 463.068,155.436 463.15,155.416C463.602,155.304 464.078,155.241 464.559,155.229C464.638,155.228 464.717,155.222 464.832,155.212C465.097,155.217 465.403,155.26 465.674,155.299L465.789,155.316C465.898,155.331 466.006,155.345 466.103,155.365C466.38,155.425 466.673,155.51 466.996,155.626C467.134,155.675 467.27,155.729 467.402,155.786C467.697,155.912 468.039,156.067 468.407,156.29C468.669,156.454 468.941,156.676 469.164,156.861C469.231,156.919 469.299,156.975 469.366,157.03C469.415,157.071 469.468,157.109 469.548,157.19C469.838,157.467 470.077,157.73 470.285,158.002C470.343,158.078 470.391,158.171 470.445,158.261C470.502,158.358 470.559,158.455 470.612,158.538L470.727,158.721C470.815,158.857 470.905,158.992 470.979,159.146C471.033,159.261 471.071,159.392 471.114,159.522L471.303,160.062C471.355,160.2 471.41,160.337 471.445,160.485C471.569,161.025 471.628,161.54 471.628,162.06L471.628,401.917ZM459.494,409.473L459.432,410.023C459.414,410.213 459.4,410.403 459.362,410.571C459.284,410.901 459.152,411.239 458.975,411.655L458.872,411.914C458.844,411.989 458.817,412.065 458.791,412.118C458.668,412.353 458.475,412.613 458.271,412.888L458.208,412.974C458.142,413.064 458.081,413.156 458.023,413.249L457.965,413.337C457.924,413.387 457.885,413.438 457.874,413.461C457.496,413.886 457.085,414.252 456.651,414.547L456.163,414.883L331.194,487.079C331.101,486.374 330.963,485.677 330.786,484.99C329.607,480.438 326.689,476.606 322.563,474.197L255.871,435.687L384.211,361.569L456.012,402.979L456.166,403.076C456.651,403.36 457.089,403.686 457.497,404.075L457.597,404.175C457.988,404.569 458.325,405.002 458.607,405.472L458.705,405.676C458.967,406.151 459.169,406.639 459.301,407.111C459.323,407.191 459.328,407.276 459.338,407.359C459.355,407.488 459.372,407.616 459.405,407.805C459.475,408.184 459.541,408.542 459.547,408.851C459.551,409.024 459.524,409.232 459.494,409.473M319.682,492.71C319.328,493.258 319.007,493.715 318.549,494.209C318.47,494.3 318.379,494.38 318.282,494.464L248.562,534.721C247.895,535.085 247.34,535.312 246.722,535.466C245.562,535.788 244.497,535.792 243.176,535.428C243.058,535.399 242.943,535.353 242.826,535.311L242.612,535.236C242.505,535.195 242.405,535.151 242.364,535.135C242.079,534.995 241.79,534.846 241.593,534.739L33.624,414.639C33.312,414.428 33.068,414.239 32.81,414.009C32.692,413.911 32.574,413.812 32.514,413.757C31.279,412.481 30.597,410.793 30.596,409.007C30.596,406.52 31.88,404.292 34.032,403.048L105.901,361.489L316.991,483.451C320.912,485.739 321.046,490.34 319.682,492.71M19.861,406.194C18.914,404.99 18.373,403.487 18.373,401.917L18.373,162.06C18.373,160.13 19.098,158.466 20.564,157.079C20.922,156.72 21.377,156.395 21.98,156.064C22.097,156.001 22.216,155.943 22.359,155.876C22.632,155.744 22.947,155.624 23.322,155.511L23.519,155.45C23.628,155.416 23.735,155.38 23.836,155.357C24.236,155.27 24.649,155.219 25.064,155.207C25.143,155.204 25.224,155.197 25.311,155.186C25.792,155.192 26.294,155.263 26.841,155.4C26.883,155.411 26.925,155.427 26.969,155.443L27.189,155.515C27.787,155.701 28.225,155.88 28.599,156.096L100.48,197.602L100.48,352.159L27.791,394.066C23.481,396.812 20.627,401.232 19.861,406.194M21.718,141.954L105.846,93.4075L234.232,167.54L234.198,167.559L316.996,215.37C318.93,216.498 320.173,218.417 320.407,220.632C320.414,220.696 320.423,220.758 320.435,220.832C320.465,221.207 320.45,221.629 320.392,222.146L320.378,222.272C320.366,222.376 320.356,222.479 320.335,222.593C320.272,222.953 320.171,223.321 320.034,223.704C319.969,223.878 319.898,224.049 319.819,224.219C319.662,224.564 319.497,224.864 319.327,225.122C319.2,225.311 319.051,225.486 318.903,225.666C318.686,225.928 318.476,226.179 318.25,226.381C317.885,226.712 317.487,227.052 317.058,227.299L248.446,266.693C246.404,267.864 243.61,267.864 241.577,266.685L106.133,188.472L34.236,146.94C33.615,146.548 32.999,146.251 31.98,145.797C31.844,145.738 31.702,145.697 31.536,145.656C30.684,145.327 29.775,145.063 28.753,144.85L28.558,144.809C28.363,144.766 28.167,144.725 27.976,144.695C26.757,144.5 25.752,144.378 24.782,144.482L24.681,144.492C24.543,144.495 24.408,144.507 24.272,144.519L24.118,144.531C22.991,144.603 21.9,144.773 20.851,145.039C20.778,145.055 20.706,145.07 20.62,145.093C19.945,145.277 19.272,145.507 18.618,145.774C19.139,144.187 20.231,142.811 21.718,141.954M241.517,15.1165C243.608,13.9105 246.307,13.9125 248.394,15.1145L373.416,87.2045L244.996,161.362L116.581,87.2115L241.517,15.1165ZM255.751,274.874L322.403,236.607C323.144,236.181 323.869,235.679 324.672,235.034L378.786,203.789L378.786,345.964L255.751,274.874ZM111.213,346.022L111.213,203.8L234.275,274.862L111.213,346.022ZM241.555,283.047C243.648,281.838 246.352,281.838 248.443,283.046L373.55,355.331L245.096,429.517L116.624,355.289L241.555,283.047ZM468.26,141.935C469.773,142.813 470.88,144.217 471.395,145.827C471.157,145.733 470.913,145.643 470.662,145.558C467.48,144.37 464.104,144.185 460.859,144.969C459.899,145.178 458.967,145.465 458.13,145.802C457.983,145.839 457.838,145.882 457.656,145.96C457.037,146.238 456.392,146.541 455.95,146.83L405.154,176.174L331.087,218.938C330.372,213.554 327.254,208.859 322.44,206.08L255.727,167.559L384.118,93.4185L468.26,141.935ZM473.727,132.658L253.754,5.8175C251.125,4.3025 248.083,3.5015 244.954,3.5015C241.824,3.5015 238.78,4.3035 236.154,5.8205L16.326,132.637C10.891,135.784 7.515,141.644 7.515,147.94L7.542,152.188L7.459,401.863C7.457,408.139 10.832,413.986 16.268,417.123L236.255,544.139C238.929,545.682 241.975,546.498 245.061,546.498C248.147,546.498 251.192,545.682 253.867,544.139L473.734,417.195C479.166,414.058 482.541,408.213 482.541,401.941L482.541,147.914C482.541,141.637 479.163,135.789 473.727,132.658" style="fill:white;fill-rule:nonzero;"/>
            </g>
        </g>
    </g>
</svg>
